icons/plexis/48/terminatorX.svg

<svg viewBox="0 0 48 48" xmlns="http://www.w3.org/2000/svg" xmlns:xlink="http://www.w3.org/1999/xlink">
  <linearGradient id="a" gradientUnits="userSpaceOnUse" x2="0" y1="47" y2="1">
    <stop offset="0" stop-color="#de4e5f"/>
    <stop offset="1" stop-color="#e15f6e"/>
  </linearGradient>
  <path d="m24 1c22.703 0 23 .297 23 23 0 22.703-.297 23-23 23-22.703 0-23-.297-23-23 0-22.703.297-23 23-23z" fill="url(#a)"/>
  <circle cx="25" cy="25" opacity=".1" r="15"/>
  <circle cx="24" cy="24" fill="#373737" r="15"/>
  <path d="m24 10a14 14 0 0 0-14 14 14 14 0 0 0  14 14 14 14 0 0 0  14-14 14 14 0 0 0-14-14m0 1a13 13 0 0 1 13 13 13 13 0 0 1-13 13 13 13 0 0 1-13-13 13 13 0 0 1  13-13m0 1a12 12 0 0 0-12 12 12 12 0 0 0  12 12 12 12 0 0 0  12-12 12 12 0 0 0-12-12m0 1a11 11 0 0 1 11 11 11 11 0 0 1-11 11 11 11 0 0 1-11-11 11 11 0 0 1  11-11m0 1a10 10 0 0 0-10 10 10 10 0 0 0  10 10 10 10 0 0 0  10-10 10 10 0 0 0-10-10m0 1a9 9 0 0 1 9 9 9 9 0 0 1-9 9 9 9 0 0 1-9-9 9 9 0 0 1  9-9zm0 1a8 8 0 0 0-8 8 8 8 0 0 0  8 8 8 8 0 0 0  8-8 8 8 0 0 0-8-8zm0 1a7 7 0 0 1 7 7 7 7 0 0 1-7 7 7 7 0 0 1-7-7 7 7 0 0 1  7-7zm0 1a6 6 0 0 0-6 6 6 6 0 0 0  6 6 6 6 0 0 0  6-6 6 6 0 0 0-6-6z" fill="#434343"/>
  <path d="m24 19a5 5 0 0 0-5 5 5 5 0 0 0  5 5 5 5 0 0 0  5-5 5 5 0 0 0-5-5zm0 4a1 1 0 0 1 1 1 1 1 0 0 1-1 1 1 1 0 0 1-1-1 1 1 0 0 1  1-1z" fill="#f0f0f0"/>
</svg>

<svg xmlns="http://www.w3.org/2000/svg" viewBox="0 0 48 48">
 <defs>
  <linearGradient id="linearGradient3845" y1="47" x2="0" y2="1" gradientUnits="userSpaceOnUse">
   <stop style="stop-color:#de4e5f;stop-opacity:1"/>
   <stop offset="1" style="stop-color:#e15f6e;stop-opacity:1"/>
  </linearGradient>
 </defs>
 <g>
  
  
  
 </g>
 <g>
  <path d="m 24 1 c 22.703 0 23 0.297 23 23 c 0 22.703 -0.297 23 -23 23 -22.703 0 -23 -0.297 -23 -23 0 -22.703 0.297 -23 23 -23 z" style="fill:url(#linearGradient3845);fill-opacity:1"/>
 </g>
 <g>
  
 </g>
 <circle r="15" cy="25" cx="25" style="fill:#000;opacity:0.1;fill-opacity:1;stroke:none"/>
 <circle cx="24" cy="24" r="15" style="fill:#373737;opacity:1;fill-opacity:1;stroke:none"/>
 <path d="M 24 10 A 14 14 0 0 0 10 24 14 14 0 0 0 24 38 14 14 0 0 0 38 24 14 14 0 0 0 24 10 m 0 1 A 13 13 0 0 1 37 24 13 13 0 0 1 24 37 13 13 0 0 1 11 24 13 13 0 0 1 24 11 m 0 1 A 12 12 0 0 0 12 24 12 12 0 0 0 24 36 12 12 0 0 0 36 24 12 12 0 0 0 24 12 m 0 1 A 11 11 0 0 1 35 24 11 11 0 0 1 24 35 11 11 0 0 1 13 24 11 11 0 0 1 24 13 m 0 1 A 10 10 0 0 0 14 24 10 10 0 0 0 24 34 10 10 0 0 0 34 24 10 10 0 0 0 24 14 m 0 1 a 9 9 0 0 1 9 9 9 9 0 0 1 -9 9 9 9 0 0 1 -9 -9 9 9 0 0 1 9 -9 z m 0 1 a 8 8 0 0 0 -8 8 8 8 0 0 0 8 8 8 8 0 0 0 8 -8 8 8 0 0 0 -8 -8 z m 0 1 a 7 7 0 0 1 7 7 7 7 0 0 1 -7 7 7 7 0 0 1 -7 -7 7 7 0 0 1 7 -7 z m 0 1 a 6 6 0 0 0 -6 6 6 6 0 0 0 6 6 6 6 0 0 0 6 -6 6 6 0 0 0 -6 -6 z" style="fill:#434343;opacity:1;fill-opacity:1;stroke:none"/>
 <path d="M 24 19 A 5 5 0 0 0 19 24 A 5 5 0 0 0 24 29 A 5 5 0 0 0 29 24 A 5 5 0 0 0 24 19 z M 24 23 A 1 1 0 0 1 25 24 A 1 1 0 0 1 24 25 A 1 1 0 0 1 23 24 A 1 1 0 0 1 24 23 z" style="fill:#f0f0f0;opacity:1;fill-opacity:1;stroke:none"/>
</svg>
